X: 1
T: Potter's No. 6 Quickstep
O: Clark 1797
%R: jig, quickstep
F: http://ancients.sudburymuster.org/mus/sng/pdf/pottersC0.pdf
Z: 2020 John Chambers <jc:trillian.mit.edu>
M: 6/8
L: 1/8
Q: 3/8=92
K: D
|: A |\
d2d dfd | A2a f2d | efg fed | Bed cBA |\
d2d dfd | A2a f2d | efg fed | cBc d2 :|
|: c/d/ |\
e2e efe | a2a f2d | efg f2d | Bed c2A |\
e2e efe | a2a f2d | efd cdB | c2A ABc |
d2d dfd | A2a f2d | efg fed | Bed cBA |\
d2d dfd | A2a f2d | efg fed | cBc d2 :|
|: F |\
B2B cBc | d2f f2e | dcd Bcd | cBc ^A2F |\
B2B cBc | d2f f2g | fed cde | d2B B2 :|
A |\
d2d dfd | A2a f2d | efg fed | Bed cBA |\
d2d dfd | A2a f2d | efg fed | cBc d2 |]
